X: 802
T: Geldi Cevher Tiğ-i Âteşbârına
C: Ebûbekir Ağa
O: Turkey
F: http://compmusic.upf.edu/node/140
N: evic--karce--nimhafif--geldi_cevher--ebubekir_aga
N: makam= evic
N: form= karce
N: usul= nimhafif = 16/4
M: 16/4
L: 1/16
K: C _1/4B ^f ^c 
Q: 1/4=72
%%MIDI tuningsystem comma53
f6 f2 f4 g4  | a4 a2 g2 f3 e d4  | f6 g2 f4 e4  | \
w:  Gel di  cev her   |  tiğ_ i  *  â *  teş  |  bâ rı na  â  | 
f4 g4 a6 z2  | g6 g2 g4 {a}g2 f2  | 
w:  yi ne den    |  Hat  ya zıl *  dı   | 
f4 f3 e e3 d d4  | e6 d2 f2 g2 a2 b2  | \
w:  cün büş_ *  i  *  et  |  vâ rı na  *  â  | 
a4 g4 f6 z2  | f6 f2 f4 g4  | a4 a2 g2 f3 e d4  | 
w:  yi ne den    |  Gel di  cev her   |  tiğ_ i  *  â *  teş  | 
f6 g2 f4 e4  | f4 g4 a6 z2  | g6 g2 g4 {a}g2 f2  | \
w:  bâ rı na  â  |  yi ne den    |  Hat  ya zıl *  dı   | 
f4 f3 e e3 d d4  | e6 d2 f2 g2 a2 b2  | 
w:  cün büş_ *  i  *  et  |  vâ rı na  *  â  | 
a4 g4 f6 z2  | ^e2 f2 g2 a2 g2 =f2 =e2 d2  | \
w:  yi ne den    |  Ten  *  *  *  nâ   | 
d2 =c2 d2 e2 c4 B A B2  | d4 d2 d2 d4 {e}d2 =c2  | 
w:  dir  *  *  *  nâ   |  det  de  re  dil  *  li   | 
=c3 B B2 A2 A6 z2  | =c6 d2 B6 c2  | \
w:  dil  *  li  *  ten    |  Ten  *  nâ   | 
A6 B2 A2 G2 F4  | =c4 B2 A2 A2 G2 G2 F2  | 
w:  dir  *  nâ   |  det  de  re  dil  *  li   | 
F12 z4  | ^e2 f2 g2 a2 g2 =f2 =e2 d2  | \
w:  ten    |  Ten  *  *  *  nâ   | 
d2 =c2 d2 e2 c4 B A B2  | d4 d2 d2 d4 {e}d2 =c2  | 
w:  dir  *  *  *  nâ   |  det  de  re  dil  *  li   | 
=c3 B B2 A2 A6 z2  | =c6 d2 B6 c2  | \
w:  dil  *  li  *  ten    |  Ten  *  nâ   | 
A6 B2 A2 G2 F4  | =c4 B2 A2 A2 G2 G2 F2  | 
w:  dir  *  nâ   |  det  de  re  dil  *  li   | 
F12 z4  | a6 a2 a4 f4  | a4 a2 _b2 a4 ^g4  | \
w:  ten    |  Câh_ ı  en dî  |  şem de  *  sey ret   | 
a6 _b2 a4 ^g4  | f4 ^g4 a6 z2  | f6 d2 e2 f2 g4  | 
w:  fit ne  i  hâ  |  rû tu nu    |  Bir  na zar  *  kıl   | 
a4 a2 b2 a2 g2 f4  | b6 a2 =c'4 b2 a2  | \
w:  gam ze  *  i  *  seh  |  hâ rı na  â  | 
a2 g2 g2 f2 f6 z2  | a6 a2 a4 f4  | 
w:  yi *  ne *  den    |  Câh_ ı  en dî  | 
a4 a2 _b2 a4 ^g4  | a6 _b2 a4 ^g4  | \
w:  şem de  *  sey ret   |  fit ne  i  hâ  | 
f4 ^g4 a6 z2  | f6 d2 e2 f2 g4  | a4 a2 b2 a2 g2 f4  | 
w:  rû tu nu    |  Bir  na zar  *  kıl   |  gam ze  *  i  *  seh  | 
b6 a2 =c'4 b2 a2  | a2 g2 g2 f2 f6 z2  | \
w:  hâ rı na  â  |  yi *  ne *  den    | 
^e2 f2 g2 a2 g2 =f2 =e2 d2  | d2 =c2 d2 e2 c4 B A B2  | 
w:  Ten  *  *  *  nâ   |  dir  *  *  *  nâ   | 
d4 d2 d2 d4 {e}d2 =c2  | =c3 B B2 A2 A6 z2  | \
w:  det  de  re  dil  *  li   |  dil  *  li  *  ten    | 
=c6 d2 B6 c2  | A6 B2 A2 G2 F4  | 
w:  Ten  *  nâ   |  dir  *  nâ   | 
=c4 B2 A2 A2 G2 G2 F2  | F12 z4  | ^e2 f2 g2 a2 g2 =f2 =e2 d2  | \
w:  det  de  re  dil  *  li   |  ten    |  Ten  *  *  *  nâ   | 
d2 =c2 d2 e2 c4 B A B2  | 
w:  dir  *  *  *  nâ   | 
d4 d2 d2 d4 {e}d2 =c2  | =c3 B B2 A2 A6 z2  | \
w:  det  de  re  dil  *  li   |  dil  *  li  *  ten    | 
=c6 d2 B6 c2  | A6 B2 A2 G2 F4  | 
w:  Ten  *  nâ   |  dir  *  nâ   | 
=c4 B2 A2 A2 G2 G2 F2  | F12 z4  | |


